; generated by PrusaSlicer 2.7.1+MacOS-x64 on 2024-01-20 at 19:39:56 UTC

; 

; external perimeters extrusion width = 0.42mm
; perimeters extrusion width = 0.44mm
; infill extrusion width = 0.44mm
; solid infill extrusion width = 0.44mm
; top infill extrusion width = 0.40mm
; support material extrusion width = 0.36mm
; first layer extrusion width = 0.42mm

M201 X500 Y500 Z100 E5000 ; sets maximum accelerations, mm/sec^2
M203 X500 Y500 Z10 E60 ; sets maximum feedrates, mm / sec
M204 S500 T1000 ; sets acceleration (S) and retract acceleration (R), mm/sec^2
M205 X8.00 Y8.00 Z0.40 E5.00 ; sets the jerk limits, mm/sec
M205 S0 T0 ; sets the minimum extruding and travel feed rate, mm/sec

; printing object Arm 03.STL id:0 copy 0
; stop printing object Arm 03.STL id:0 copy 0

;TYPE:Custom
G90 ; use absolute coordinates
M83 ; extruder relative mode
M104 S150 ; set temporary nozzle temp to prevent oozing during homing
M140 S60 ; set final bed temp
G4 S30 ; allow partial nozzle warmup
G28 ; home all axis and restore leveling
G1 Z50 F240
G1 X2.0 Y10 F3000
M104 S210 ; set final nozzle temp
M190 S60 ; wait for bed temp to stabilize
M109 S210 ; wait for nozzle temp to stabilize
G1 Z0.28 F240
G92 E0
G1 X2.0 Y140 E10 F1500 ; prime the nozzle
G1 X2.3 Y140 F5000
G92 E0
G1 X2.3 Y10 E10 F1200 ; prime the nozzle
G92 E0
G21 ; set units to millimeters
G90 ; use absolute coordinates
M83 ; use relative distances for extrusion
; Filament gcode
M107
;LAYER_CHANGE
;Z:0.2
;HEIGHT:0.2
;BEFORE_LAYER_CHANGE
G92 E0
;0.2


G1 E-.8 F1800
G1 Z.2 F9000
;AFTER_LAYER_CHANGE
;0.2
G1 X93.91 Y81.196
G1 Z.2
G1 E.8 F1800
M204 S500
;TYPE:Skirt/Brim
;WIDTH:0.42
G1 F1200
G1 X95.221 Y80.225 E.05115
G1 X96.515 Y79.967 E.04137
G1 X114.266 Y79.967 E.55657
G1 X115.232 Y80.108 E.03061
G1 X127.467 Y83.764 E.40038
G1 X128.871 Y84.595 E.05115
G1 X129.722 Y85.987 E.05116
G1 X129.877 Y87 E.03213
G1 X129.877 Y116.5 E.92495
G1 X129.691 Y119.204 E.08498
G1 X129.227 Y121.537 E.07458
G1 X128.785 Y122.993 E.04771
G1 X127.874 Y125.192 E.07463
G1 X127.157 Y126.533 E.04768
G1 X125.835 Y128.512 E.07462
G1 X124.87 Y129.688 E.0477
G1 X123.188 Y131.37 E.07458
G1 X122.012 Y132.335 E.0477
G1 X120.033 Y133.657 E.07462
G1 X118.692 Y134.374 E.04768
G1 X116.493 Y135.285 E.07463
G1 X115.07 Y135.719 E.04665
G1 X112.704 Y136.191 E.07565
G1 X111.192 Y136.34 E.04764
G1 X108.823 Y136.341 E.07428
G1 X107.297 Y136.191 E.04808
G1 X104.752 Y135.67 E.08145
G1 X102.292 Y134.82 E.08161
G1 X99.981 Y133.665 E.08101
G1 X97.802 Y132.192 E.08247
G1 X96.031 Y130.638 E.07387
G1 X95.139 Y129.698 E.04063
G1 X93.542 Y127.643 E.0816
G1 X92.228 Y125.398 E.08156
G1 X91.219 Y123.004 E.08146
G1 X90.775 Y121.544 E.04785
G1 X90.485 Y120.267 E.04106
G1 X90.176 Y117.922 E.07416
G1 X90.125 Y116.622 E.04079
G1 X90.123 Y87 E.92878
G1 X90.895 Y84.851 E.0716
G1 X93.871 Y81.242 E.14667
; printing object Arm 03.STL id:0 copy 0
;WIPE_START
G1 F7200
G1 X93.91 Y81.196 E-.01432
G1 X95.221 Y80.225 E-.38746
G1 X96.515 Y79.967 E-.31337
G1 X96.872 Y79.967 E-.08485
;WIPE_END
G1 X114.266 Y86.538 F9000
G1 E.8 F1800
;TYPE:Support material
G1 F1200
G1 X96.515 Y86.538 E.55657
G1 X96.515 Y83.344 E.10015
G1 X114.266 Y83.344 E.55657
G1 X114.266 Y86.481 E.09836
G1 X113.771 Y86.368 F9000
G1 F1200
G1 X113.771 Y83.684 E.08415
G1 X113.352 Y83.684 E.01314
G1 X113.352 Y86.199 E.07886
G1 X112.933 Y86.199 E.01314
G1 X112.933 Y83.684 E.07886
G1 X112.514 Y83.684 E.01314
G1 X112.514 Y86.199 E.07886
G1 X112.095 Y86.199 E.01314
G1 X112.095 Y83.684 E.07886
G1 X111.676 Y83.684 E.01314
G1 X111.676 Y86.199 E.07886
G1 X111.257 Y86.199 E.01314
G1 X111.257 Y83.684 E.07886
G1 X110.838 Y83.684 E.01314
G1 X110.838 Y86.199 E.07886
G1 X110.419 Y86.199 E.01314
G1 X110.419 Y83.684 E.07886
G1 X110 Y83.684 E.01314
G1 X110 Y86.199 E.07886
G1 X109.581 Y86.199 E.01314
G1 X109.581 Y83.684 E.07886
G1 X109.162 Y83.684 E.01314
G1 X109.162 Y86.199 E.07886
G1 X108.743 Y86.199 E.01314
G1 X108.743 Y83.684 E.07886
G1 X108.324 Y83.684 E.01314
G1 X108.324 Y86.199 E.07886
G1 X107.905 Y86.199 E.01314
G1 X107.905 Y83.684 E.07886
G1 X107.486 Y83.684 E.01314
G1 X107.486 Y86.199 E.07886
G1 X107.067 Y86.199 E.01314
G1 X107.067 Y83.684 E.07886
G1 X106.648 Y83.684 E.01314
G1 X106.648 Y86.199 E.07886
G1 X106.229 Y86.199 E.01314
G1 X106.229 Y83.684 E.07886
G1 X105.81 Y83.684 E.01314
G1 X105.81 Y86.199 E.07886
G1 X105.391 Y86.199 E.01314
G1 X105.391 Y83.684 E.07886
G1 X104.972 Y83.684 E.01314
G1 X104.972 Y86.199 E.07886
G1 X104.553 Y86.199 E.01314
G1 X104.553 Y83.684 E.07886
G1 X104.134 Y83.684 E.01314
G1 X104.134 Y86.199 E.07886
G1 X103.715 Y86.199 E.01314
G1 X103.715 Y83.684 E.07886
G1 X103.296 Y83.684 E.01314
G1 X103.296 Y86.199 E.07886
G1 X102.877 Y86.199 E.01314
G1 X102.877 Y83.684 E.07886
G1 X102.458 Y83.684 E.01314
G1 X102.458 Y86.199 E.07886
G1 X102.039 Y86.199 E.01314
G1 X102.039 Y83.684 E.07886
G1 X101.62 Y83.684 E.01314
G1 X101.62 Y86.199 E.07886
G1 X101.201 Y86.199 E.01314
G1 X101.201 Y83.684 E.07886
G1 X100.783 Y83.684 E.01311
G1 X100.783 Y86.199 E.07886
G1 X100.364 Y86.199 E.01314
G1 X100.364 Y83.684 E.07886
G1 X99.945 Y83.684 E.01314
G1 X99.945 Y86.199 E.07886
G1 X99.526 Y86.199 E.01314
G1 X99.526 Y83.684 E.07886
G1 X99.107 Y83.684 E.01314
G1 X99.107 Y86.199 E.07886
G1 X98.688 Y86.199 E.01314
G1 X98.688 Y83.684 E.07886
G1 X98.269 Y83.684 E.01314
G1 X98.269 Y86.199 E.07886
G1 X97.85 Y86.199 E.01314
G1 X97.85 Y83.684 E.07886
G1 X97.431 Y83.684 E.01314
G1 X97.431 Y86.199 E.07886
G1 X97.012 Y86.199 E.01314
G1 X97.012 Y83.514 E.08419
;WIPE_START
G1 F7200
G1 X97.012 Y86.199 E-.63769
G1 X97.431 Y86.199 E-.09951
G1 X97.431 Y85.935 E-.0628
;WIPE_END
G1 X94.564 Y88.064 F9000
G1 E.8 F1800
;TYPE:Perimeter
;WIDTH:0.419999
G1 F1200
G1 X125.436 Y88.064 E.96797
G1 X125.436 Y98.166 E.31674
G1 X125.436 Y116.483 E.57432
G1 X125.402 Y117.509 E.03219
G1 X125.303 Y118.515 E.03169
G1 X125.139 Y119.511 E.03165
G1 X124.909 Y120.496 E.03171
G1 X124.616 Y121.463 E.03168
G1 X124.26 Y122.407 E.03163
G1 X123.843 Y123.329 E.03173
G1 X123.367 Y124.218 E.03162
G1 X122.834 Y125.076 E.03167
G1 X122.245 Y125.897 E.03168
G1 X121.605 Y126.677 E.03164
G1 X120.913 Y127.416 E.03174
G1 X120.177 Y128.105 E.03161
G1 X119.396 Y128.746 E.03168
G1 X118.575 Y129.335 E.03168
G1 X117.718 Y129.867 E.03163
G1 X116.827 Y130.343 E.03167
G1 X115.906 Y130.761 E.03171
G1 X114.961 Y131.116 E.03165
G1 X113.993 Y131.41 E.03172
G1 X113.009 Y131.639 E.03168
G1 X112.015 Y131.803 E.03159
G1 X111.009 Y131.902 E.03169
G1 X110 Y131.935 E.03165
G1 X108.989 Y131.902 E.03172
G1 X107.985 Y131.803 E.03163
G1 X106.988 Y131.639 E.03168
G1 X106.003 Y131.409 E.03171
G1 X105.039 Y131.116 E.03159
G1 X104.096 Y130.762 E.03158
G1 X103.175 Y130.344 E.03171
G1 X102.282 Y129.867 E.03174
G1 X101.425 Y129.334 E.03164
G1 X100.604 Y128.746 E.03166
G1 X99.823 Y128.105 E.03168
G1 X99.084 Y127.413 E.03174
G1 X98.395 Y126.677 E.03161
G1 X97.754 Y125.896 E.03168
G1 X97.166 Y125.075 E.03166
G1 X96.632 Y124.217 E.03169
G1 X96.157 Y123.328 E.0316
G1 X95.74 Y122.408 E.03167
G1 X95.384 Y121.461 E.03172
G1 X95.091 Y120.495 E.03165
G1 X94.861 Y119.51 E.03171
G1 X94.697 Y118.514 E.03165
G1 X94.598 Y117.51 E.03163
G1 X94.564 Y116.483 E.03222
G1 X94.564 Y88.124 E.88918
G1 X94.187 Y87.687 F9000
G1 F1200
G1 X125.813 Y87.687 E.99161
G1 X125.813 Y98.166 E.32856
G1 X125.813 Y116.489 E.5745
G1 X125.779 Y117.534 E.03278
G1 X125.677 Y118.564 E.03245
G1 X125.509 Y119.585 E.03244
G1 X125.274 Y120.593 E.03245
G1 X124.973 Y121.585 E.0325
G1 X124.609 Y122.551 E.03237
G1 X124.181 Y123.495 E.0325
G1 X123.694 Y124.406 E.03239
G1 X123.147 Y125.286 E.03249
G1 X122.545 Y126.126 E.0324
G1 X121.889 Y126.926 E.03244
G1 X121.18 Y127.682 E.0325
G1 X120.426 Y128.389 E.03241
G1 X119.626 Y129.045 E.03244
G1 X118.784 Y129.648 E.03247
G1 X117.906 Y130.194 E.03242
G1 X116.994 Y130.682 E.03243
G1 X116.051 Y131.109 E.03246
G1 X115.082 Y131.474 E.03247
G1 X114.091 Y131.774 E.03246
G1 X113.083 Y132.009 E.03245
G1 X112.064 Y132.177 E.03238
G1 X111.034 Y132.279 E.03245
G1 X110 Y132.313 E.03244
G1 X108.964 Y132.279 E.0325
G1 X107.935 Y132.177 E.03242
G1 X106.914 Y132.009 E.03244
G1 X105.905 Y131.773 E.03249
G1 X104.918 Y131.474 E.03234
G1 X103.952 Y131.11 E.03237
G1 X103.008 Y130.683 E.03249
G1 X102.093 Y130.194 E.03253
G1 X101.215 Y129.648 E.03242
G1 X100.374 Y129.045 E.03245
G1 X99.574 Y128.388 E.03246
G1 X98.818 Y127.68 E.03248
G1 X98.112 Y126.926 E.03239
G1 X97.455 Y126.126 E.03246
G1 X96.852 Y125.284 E.03247
G1 X96.306 Y124.406 E.03242
G1 X95.819 Y123.495 E.03239
G1 X95.391 Y122.552 E.03247
G1 X95.026 Y121.582 E.0325
G1 X94.726 Y120.593 E.0324
G1 X94.491 Y119.583 E.03251
G1 X94.323 Y118.564 E.03238
G1 X94.221 Y117.535 E.03242
G1 X94.187 Y116.489 E.03281
G1 X94.187 Y87.747 E.90118
G1 X93.81 Y87.31 F9000
;TYPE:External perimeter
G1 F1200
G1 X126.19 Y87.31 E1.01525
G1 X126.19 Y98.166 E.34038
G1 X126.19 Y116.495 E.57469
G1 X126.155 Y117.559 E.03338
G1 X126.051 Y118.613 E.03321
G1 X125.879 Y119.659 E.03324
G1 X125.638 Y120.691 E.03323
G1 X125.33 Y121.706 E.03326
G1 X124.957 Y122.696 E.03317
G1 X124.519 Y123.662 E.03326
G1 X124.021 Y124.595 E.03316
G1 X123.461 Y125.495 E.03324
G1 X122.844 Y126.356 E.03321
G1 X122.172 Y127.175 E.03322
G1 X121.447 Y127.949 E.03325
G1 X120.675 Y128.672 E.03316
G1 X119.856 Y129.344 E.03322
G1 X118.994 Y129.962 E.03326
G1 X118.095 Y130.521 E.03319
G1 X117.161 Y131.02 E.0332
G1 X116.195 Y131.458 E.03326
G1 X115.203 Y131.831 E.03323
G1 X114.189 Y132.139 E.03323
G1 X113.156 Y132.379 E.03325
G1 X112.113 Y132.551 E.03314
G1 X111.059 Y132.655 E.03321
G1 X110 Y132.69 E.03322
G1 X108.939 Y132.655 E.03328
G1 X107.886 Y132.551 E.03318
G1 X106.841 Y132.379 E.03321
G1 X105.808 Y132.138 E.03326
G1 X104.797 Y131.831 E.03313
G1 X103.808 Y131.459 E.03313
G1 X102.841 Y131.021 E.03328
G1 X101.905 Y130.52 E.03329
G1 X101.005 Y129.961 E.03322
G1 X100.144 Y129.344 E.03321
G1 X99.325 Y128.672 E.03322
G1 X98.551 Y127.947 E.03325
G1 X97.828 Y127.175 E.03316
G1 X97.155 Y126.355 E.03326
G1 X96.538 Y125.494 E.03321
G1 X95.979 Y124.594 E.03322
G1 X95.48 Y123.662 E.03315
G1 X95.043 Y122.696 E.03324
G1 X94.669 Y121.703 E.03327
G1 X94.362 Y120.691 E.03316
G1 X94.121 Y119.657 E.03329
G1 X93.949 Y118.613 E.03318
G1 X93.845 Y117.56 E.03318
G1 X93.81 Y116.495 E.03341
G1 X93.81 Y87.37 E.91319
;WIPE_START
G1 F7200
G1 X93.81 Y87.31 E-.01425
G1 X97.118 Y87.31 E-.78575
;WIPE_END
G1 X105.776 Y108.73 F9000
G1 E.8 F1800
;TYPE:Perimeter
G1 F1200
G1 X106.412 Y108.342 E.02336
G1 X107.153 Y107.993 E.02568
G1 X107.891 Y107.739 E.02447
G1 X108.726 Y107.545 E.02688
G1 X109.54 Y107.451 E.02569
G1 X110.358 Y107.445 E.02565
G1 X111.173 Y107.528 E.02569
G1 X111.974 Y107.699 E.02568
G1 X112.752 Y107.955 E.02568
G1 X113.497 Y108.294 E.02566
G1 X114.202 Y108.712 E.0257
G1 X114.857 Y109.203 E.02567
G1 X115.456 Y109.762 E.02569
G1 X115.99 Y110.382 E.02566
G1 X116.454 Y111.057 E.02568
G1 X116.843 Y111.778 E.02569
G1 X117.151 Y112.537 E.02568
G1 X117.375 Y113.324 E.02566
G1 X117.513 Y114.132 E.0257
G1 X117.563 Y114.949 E.02566
G1 X117.524 Y115.767 E.02568
G1 X117.397 Y116.576 E.02568
G1 X117.183 Y117.367 E.02569
G1 X116.99 Y117.867 E.0168
G1 X116.549 Y118.775 E.03165
G1 X116.052 Y119.536 E.0285
G1 X115.526 Y120.164 E.02568
G1 X114.935 Y120.731 E.02568
G1 X114.456 Y121.102 E.019
G1 X113.672 Y121.607 E.02924
G1 X112.847 Y122.007 E.02875
G1 X112.072 Y122.274 E.0257
G1 X111.274 Y122.455 E.02566
G1 X110.462 Y122.549 E.02563
G1 X109.64 Y122.554 E.02577
G1 X109.103 Y122.502 E.01692
G1 X108.215 Y122.343 E.02829
G1 X107.352 Y122.08 E.02829
G1 X106.512 Y121.71 E.02878
G1 X105.798 Y121.288 E.026
G1 X105.143 Y120.797 E.02567
G1 X104.544 Y120.238 E.02569
G1 X104.161 Y119.795 E.01836
G1 X103.588 Y119.004 E.03062
G1 X103.157 Y118.222 E.028
G1 X102.849 Y117.463 E.02568
G1 X102.684 Y116.888 E.01876
G1 X102.487 Y115.868 E.03257
G1 X102.437 Y115.051 E.02566
G1 X102.476 Y114.233 E.02568
G1 X102.603 Y113.424 E.02568
G1 X102.817 Y112.634 E.02566
G1 X103.115 Y111.871 E.02568
G1 X103.493 Y111.145 E.02566
G1 X103.948 Y110.464 E.02568
G1 X104.474 Y109.836 E.02568
G1 X105.065 Y109.269 E.02568
G1 X105.714 Y108.769 E.02569
G1 X105.725 Y108.762 E.00041
G1 X105.974 Y109.049 F9000
G1 F1200
G1 X106.607 Y108.665 E.02321
G1 X107.312 Y108.335 E.02441
G1 X108.012 Y108.096 E.02319
G1 X108.807 Y107.913 E.02558
G1 X109.58 Y107.826 E.02439
G1 X110.358 Y107.822 E.02439
G1 X111.132 Y107.903 E.0244
G1 X111.893 Y108.067 E.02441
G1 X112.632 Y108.313 E.02442
G1 X113.339 Y108.636 E.02437
G1 X114.008 Y109.035 E.02442
G1 X114.629 Y109.503 E.02438
G1 X115.196 Y110.036 E.0244
G1 X115.703 Y110.627 E.02441
G1 X116.142 Y111.269 E.02439
G1 X116.509 Y111.955 E.02439
G1 X116.8 Y112.676 E.02438
G1 X117.012 Y113.425 E.02441
G1 X117.141 Y114.193 E.02442
G1 X117.186 Y114.969 E.02437
G1 X117.148 Y115.747 E.02442
G1 X117.025 Y116.515 E.02439
G1 X116.82 Y117.266 E.02441
G1 X116.535 Y117.99 E.0244
G1 X116.216 Y118.599 E.02156
G1 X115.74 Y119.325 E.02722
G1 X115.238 Y119.92 E.02441
G1 X114.676 Y120.457 E.02437
G1 X114.228 Y120.802 E.01773
G1 X113.478 Y121.284 E.02795
G1 X112.688 Y121.665 E.0275
G1 X111.952 Y121.916 E.02438
G1 X111.193 Y122.087 E.02439
G1 X110.421 Y122.174 E.02436
G1 X109.64 Y122.177 E.02449
G1 X108.868 Y122.097 E.02434
G1 X108.296 Y121.974 E.01834
G1 X107.472 Y121.722 E.02702
G1 X106.671 Y121.368 E.02746
G1 X105.992 Y120.965 E.02476
G1 X105.371 Y120.497 E.02438
G1 X104.804 Y119.964 E.0244
G1 X104.448 Y119.551 E.0171
G1 X103.9 Y118.793 E.02933
G1 X103.491 Y118.045 E.02673
G1 X103.2 Y117.324 E.02438
G1 X103.047 Y116.787 E.01751
G1 X102.859 Y115.807 E.03129
G1 X102.814 Y115.031 E.02437
G1 X102.852 Y114.253 E.02442
G1 X102.975 Y113.485 E.02439
G1 X103.18 Y112.734 E.02441
G1 X103.465 Y112.01 E.0244
G1 X103.826 Y111.321 E.02439
G1 X104.26 Y110.675 E.0244
G1 X104.762 Y110.08 E.02441
G1 X105.324 Y109.543 E.02437
G1 X105.924 Y109.083 E.02371
G1 X106.17 Y109.369 F9000
;TYPE:External perimeter
G1 F1200
G1 X106.801 Y108.988 E.02311
G1 X107.47 Y108.678 E.02312
G1 X108.132 Y108.453 E.02192
G1 X108.888 Y108.281 E.02431
G1 X109.621 Y108.201 E.02312
G1 X110.358 Y108.2 E.02311
G1 X111.092 Y108.278 E.02314
G1 X111.812 Y108.436 E.02311
G1 X112.511 Y108.67 E.02311
G1 X113.181 Y108.979 E.02313
G1 X113.813 Y109.358 E.02311
G1 X114.401 Y109.803 E.02312
G1 X114.937 Y110.309 E.02311
G1 X115.415 Y110.871 E.02313
G1 X115.83 Y111.48 E.02311
G1 X116.176 Y112.131 E.02312
G1 X116.45 Y112.816 E.02313
G1 X116.648 Y113.526 E.02311
G1 X116.769 Y114.254 E.02314
G1 X116.81 Y114.99 E.02311
G1 X116.771 Y115.726 E.02311
G1 X116.653 Y116.454 E.02312
G1 X116.457 Y117.165 E.02312
G1 X116.185 Y117.85 E.02311
G1 X115.883 Y118.422 E.02028
G1 X115.427 Y119.113 E.02596
G1 X114.951 Y119.676 E.02312
G1 X114.416 Y120.184 E.02313
G1 X114 Y120.502 E.01642
G1 X113.283 Y120.961 E.02669
G1 X112.53 Y121.322 E.02618
G1 X111.832 Y121.559 E.02311
G1 X111.112 Y121.719 E.02313
G1 X110.38 Y121.799 E.02309
G1 X109.64 Y121.8 E.0232
G1 X108.908 Y121.722 E.02308
G1 X108.377 Y121.606 E.01704
G1 X107.593 Y121.365 E.02572
G1 X106.829 Y121.026 E.02621
G1 X106.187 Y120.642 E.02346
G1 X105.599 Y120.197 E.02312
G1 X105.063 Y119.691 E.02311
G1 X104.735 Y119.307 E.01583
G1 X104.212 Y118.581 E.02805
G1 X103.824 Y117.869 E.02542
G1 X103.55 Y117.184 E.02313
G1 X103.411 Y116.687 E.01618
G1 X103.231 Y115.746 E.03004
G1 X103.19 Y115.01 E.02311
G1 X103.229 Y114.274 E.02311
G1 X103.347 Y113.546 E.02312
G1 X103.543 Y112.835 E.02312
G1 X103.815 Y112.15 E.02311
G1 X104.16 Y111.498 E.02313
G1 X104.573 Y110.887 E.02312
G1 X105.049 Y110.324 E.02312
G1 X105.584 Y109.816 E.02313
G1 X106.122 Y109.406 E.02121
;WIPE_START
G1 F7200
G1 X106.17 Y109.369 E-.01439
G1 X106.801 Y108.988 E-.17506
G1 X107.47 Y108.678 E-.17512
G1 X108.132 Y108.453 E-.16606
G1 X108.888 Y108.281 E-.18414
G1 X109.245 Y108.242 E-.08523
;WIPE_END
G1 X125.315 Y88.951 F9000
G1 E.8 F1800
;TYPE:Solid infill
;WIDTH:0.421701
G1 F1200
G1 X124.719 Y88.355 E.02655
G1 X124.183 Y88.355 E.01688
G1 X125.145 Y89.317 E.04285
G1 X125.145 Y89.852 E.01685
G1 X123.648 Y88.355 E.06668
G1 X123.112 Y88.355 E.01688
G1 X125.145 Y90.388 E.09055
G1 X125.145 Y90.924 E.01688
G1 X122.576 Y88.355 E.11443
G1 X122.041 Y88.355 E.01685
