; generated by PrusaSlicer 2.6.0+MacOS-x64 on 2024-01-21 at 07:53:53 UTC

; 

; external perimeters extrusion width = 0.42mm
; perimeters extrusion width = 0.44mm
; infill extrusion width = 0.44mm
; solid infill extrusion width = 0.44mm
; top infill extrusion width = 0.40mm
; first layer extrusion width = 0.42mm

M201 X500 Y500 Z100 E5000 ; sets maximum accelerations, mm/sec^2
M203 X500 Y500 Z10 E60 ; sets maximum feedrates, mm / sec
M204 S500 T1000 ; sets acceleration (S) and retract acceleration (R), mm/sec^2
M205 X8.00 Y8.00 Z0.40 E5.00 ; sets the jerk limits, mm/sec
M205 S0 T0 ; sets the minimum extruding and travel feed rate, mm/sec
;TYPE:Custom
G90 ; use absolute coordinates
M83 ; extruder relative mode
M104 S150 ; set temporary nozzle temp to prevent oozing during homing
M140 S60 ; set final bed temp
G4 S30 ; allow partial nozzle warmup
G28 ; home all axis and restore leveling
G1 Z50 F240
G1 X2.0 Y10 F3000
M104 S210 ; set final nozzle temp
M190 S60 ; wait for bed temp to stabilize
M109 S210 ; wait for nozzle temp to stabilize
G1 Z0.28 F240
G92 E0
G1 X2.0 Y140 E10 F1500 ; prime the nozzle
G1 X2.3 Y140 F5000
G92 E0
G1 X2.3 Y10 E10 F1200 ; prime the nozzle
G92 E0
G21 ; set units to millimeters
G90 ; use absolute coordinates
M83 ; use relative distances for extrusion
; Filament gcode
M107
;LAYER_CHANGE
;Z:0.2
;HEIGHT:0.2
;BEFORE_LAYER_CHANGE
G92 E0
;0.2


G1 E-.8 F1800
G1 Z.2 F9000
;AFTER_LAYER_CHANGE
;0.2
G1 X100.13 Y100.423
G1 E.8 F1800
M204 S500
;TYPE:Skirt/Brim
;WIDTH:0.42
G1 F1200
G1 X101.088 Y99.524 E.04119
G1 X102.195 Y98.675 E.04374
G1 X103.337 Y97.967 E.04213
G1 X104.622 Y97.341 E.04482
G1 X105.962 Y96.852 E.04472
G1 X107.305 Y96.512 E.04344
G1 X108.66 Y96.311 E.04295
G1 X110.062 Y96.246 E.04401
G1 X111.246 Y96.305 E.03717
G1 X112.867 Y96.55 E.0514
G1 X113.971 Y96.833 E.03573
G1 X115.111 Y97.232 E.03787
G1 X116.61 Y97.938 E.05195
G1 X117.771 Y98.653 E.04275
G1 X118.86 Y99.482 E.04291
G1 X119.735 Y100.285 E.03724
G1 X120.662 Y101.312 E.04338
G1 X121.462 Y102.396 E.04224
G1 X122.302 Y103.849 E.05262
G1 X122.852 Y105.106 E.04302
G1 X123.225 Y106.227 E.03704
G1 X123.574 Y107.79 E.05021
G1 X123.714 Y108.967 E.03716
G1 X123.753 Y110.168 E.03768
G1 X123.69 Y111.306 E.03574
G1 X123.449 Y112.874 E.04974
G1 X123.153 Y114.017 E.03702
G1 X122.587 Y115.542 E.051
G1 X122.131 Y116.482 E.03276
G1 X121.229 Y117.94 E.05376
G1 X119.717 Y119.733 E.07354
G1 X118.652 Y120.691 E.04491
G1 X117.562 Y121.487 E.04232
G1 X116.557 Y122.089 E.03673
G1 X115.357 Y122.667 E.04176
G1 X114.048 Y123.144 E.04368
G1 X112.421 Y123.537 E.05248
G1 X111.328 Y123.689 E.0346
G1 X109.934 Y123.754 E.04376
G1 X107.587 Y123.539 E.0739
G1 X106.264 Y123.236 E.04256
G1 X104.842 Y122.747 E.04715
G1 X103.419 Y122.076 E.04933
G1 X102.426 Y121.478 E.03634
G1 X101.136 Y120.514 E.05049
G1 X100.266 Y119.714 E.03706
G1 X99.375 Y118.733 E.04155
G1 X98.575 Y117.656 E.04207
G1 X97.793 Y116.334 E.04816
G1 X97.267 Y115.198 E.03925
G1 X96.826 Y113.952 E.04144
G1 X96.512 Y112.68 E.04108
G1 X96.29 Y111.096 E.05015
G1 X96.248 Y109.828 E.03978
G1 X96.35 Y108.309 E.04773
G1 X96.566 Y107.053 E.03996
G1 X96.84 Y106.005 E.03396
G1 X97.294 Y104.736 E.04226
G1 X97.793 Y103.665 E.03705
G1 X98.575 Y102.343 E.04816
G1 X99.425 Y101.205 E.04454
G1 X100.09 Y100.468 E.03112
G1 X100.369 Y100.72 F9000
G1 F1200
G1 X101.328 Y99.814 E.04137
G1 X102.405 Y98.988 E.04256
G1 X103.518 Y98.298 E.04106
G1 X104.765 Y97.69 E.0435
G1 X106.068 Y97.214 E.0435
G1 X107.374 Y96.883 E.04224
G1 X108.692 Y96.687 E.04178
G1 X110.057 Y96.623 E.04285
G1 X111.207 Y96.68 E.0361
G1 X112.797 Y96.921 E.05042
G1 X114.963 Y97.578 E.07097
G1 X116.432 Y98.271 E.05093
G1 X117.564 Y98.968 E.04168
G1 X118.624 Y99.776 E.04179
G1 X119.461 Y100.544 E.03562
G1 X120.365 Y101.545 E.04229
G1 X121.144 Y102.6 E.04112
G1 X121.968 Y104.025 E.05161
G1 X122.503 Y105.249 E.04188
G1 X122.86 Y106.322 E.03546
G1 X123.203 Y107.86 E.04941
G1 X123.376 Y110.168 E.07257
G1 X123.316 Y111.262 E.03435
G1 X123.078 Y112.804 E.04892
G1 X122.795 Y113.898 E.03543
G1 X122.239 Y115.397 E.05013
G1 X121.798 Y116.305 E.03165
G1 X120.916 Y117.73 E.05255
G1 X119.445 Y119.471 E.07146
G1 X118.412 Y120.401 E.04358
G1 X117.348 Y121.176 E.04127
G1 X116.371 Y121.76 E.03569
G1 X115.214 Y122.318 E.04028
G1 X113.629 Y122.875 E.05268
G1 X112.345 Y123.168 E.04129
G1 X111.296 Y123.313 E.0332
G1 X109.941 Y123.377 E.04253
G1 X107.661 Y123.169 E.07178
G1 X106.371 Y122.875 E.04148
G1 X104.994 Y122.402 E.04565
G1 X103.593 Y121.741 E.04857
G1 X102.641 Y121.169 E.03482
G1 X101.372 Y120.22 E.04968
G1 X100.539 Y119.455 E.03546
G1 X99.669 Y118.497 E.04058
G1 X98.888 Y117.446 E.04106
G1 X98.126 Y116.157 E.04695
G1 X97.616 Y115.055 E.03807
G1 X97.186 Y113.838 E.04047
G1 X96.883 Y112.612 E.0396
G1 X96.666 Y111.071 E.04879
G1 X96.625 Y109.83 E.03893
G1 X96.706 Y108.52 E.04115
G1 X96.87 Y107.448 E.034
G1 X97.155 Y106.267 E.03809
G1 X97.64 Y104.884 E.04595
G1 X98.126 Y103.842 E.03605
G1 X98.888 Y102.553 E.04695
G1 X99.714 Y101.448 E.04326
G1 X100.329 Y100.765 E.02882
; printing object mg996r servo horn.stl id:0 copy 0
;WIPE_START
G1 F7200
G1 X101.328 Y99.814 E-.32758
G1 X102.405 Y98.988 E-.32235
G1 X102.942 Y98.655 E-.15007
;WIPE_END
G1 X118.761 Y111.494 F9000
G1 E.8 F1800
;TYPE:Perimeter
;WIDTH:0.419999
G1 F1200
G1 X118.577 Y112.39 E.02868
G1 X118.403 Y112.948 E.01833
G1 X118.187 Y113.5 E.01859
G1 X117.752 Y114.379 E.03075
G1 X117.292 Y115.103 E.02689
G1 X116.757 Y115.805 E.02767
G1 X116.201 Y116.39 E.02531
G1 X115.695 Y116.843 E.02129
G1 X115.209 Y117.226 E.0194
G1 X114.77 Y117.519 E.01655
G1 X114.337 Y117.775 E.01577
G1 X113.749 Y118.068 E.0206
G1 X113.236 Y118.29 E.01753
G1 X112.597 Y118.516 E.02125
G1 X111.825 Y118.708 E.02494
G1 X112.202 Y118.25 E.0186
G1 X112.345 Y118 E.00903
G1 X112.555 Y117.404 E.01981
G1 X112.598 Y116.899 E.01589
G1 X112.469 Y116.178 E.02297
G1 X112.261 Y115.711 E.01603
G1 X111.948 Y115.276 E.0168
G1 X111.58 Y114.928 E.01588
G1 X111.067 Y114.628 E.01863
G1 X110.792 Y114.524 E.00922
G1 X110.205 Y114.408 E.01876
G1 X109.586 Y114.471 E.01951
G1 X109.046 Y114.65 E.01784
G1 X108.606 Y114.92 E.01619
G1 X108.242 Y115.255 E.01551
G1 X107.933 Y115.681 E.0165
G1 X107.721 Y116.194 E.0174
G1 X107.623 Y116.777 E.01854
G1 X107.699 Y117.408 E.01993
G1 X107.781 Y117.709 E.00978
G1 X108.057 Y118.28 E.01989
G1 X108.485 Y118.754 E.02002
G1 X107.634 Y118.582 E.02722
G1 X106.585 Y118.224 E.03475
G1 X105.76 Y117.828 E.02869
G1 X105.186 Y117.488 E.02092
G1 X104.689 Y117.144 E.01895
G1 X104.182 Y116.731 E.0205
G1 X103.71 Y116.293 E.02019
G1 X103.076 Y115.584 E.02982
G1 X102.607 Y114.947 E.0248
G1 X102.3 Y114.466 E.01789
G1 X102.058 Y114.024 E.0158
G1 X101.789 Y113.441 E.02013
G1 X101.525 Y112.699 E.02469
G1 X101.286 Y111.806 E.02898
G1 X101.468 Y112.002 E.00839
G1 X101.995 Y112.342 E.01966
G1 X102.291 Y112.462 E.01001
G1 X103.004 Y112.605 E.0228
G1 X103.673 Y112.511 E.02118
G1 X104.13 Y112.346 E.01523
G1 X104.646 Y112.013 E.01926
G1 X105.03 Y111.629 E.01703
G1 X105.332 Y111.161 E.01746
G1 X105.524 Y110.635 E.01756
G1 X105.573 Y110.321 E.00996
G1 X105.567 Y109.774 E.01715
G1 X105.395 Y109.161 E.01996
G1 X105.183 Y108.746 E.01461
G1 X104.837 Y108.328 E.01701
G1 X104.407 Y107.984 E.01727
G1 X103.919 Y107.754 E.01692
G1 X103.332 Y107.639 E.01875
G1 X102.766 Y107.661 E.01776
G1 X102.437 Y107.734 E.01057
G1 X101.884 Y107.967 E.01882
G1 X101.6 Y108.153 E.01064
G1 X101.229 Y108.505 E.01604
G1 X101.379 Y107.771 E.02349
G1 X101.524 Y107.281 E.01602
G1 X101.707 Y106.761 E.01728
G1 X102.186 Y105.732 E.03559
G1 X102.633 Y104.999 E.02692
G1 X103.062 Y104.421 E.02257
G1 X103.651 Y103.757 E.02783
G1 X104.315 Y103.148 E.02825
G1 X105.03 Y102.613 E.028
G1 X105.545 Y102.289 E.01908
G1 X106.068 Y102.011 E.01857
G1 X106.735 Y101.728 E.02272
G1 X107.404 Y101.482 E.02235
G1 X108.178 Y101.29 E.025
G1 X107.791 Y101.761 E.01911
G1 X107.648 Y102.013 E.00908
G1 X107.43 Y102.683 E.02209
G1 X107.401 Y103.154 E.0148
G1 X107.474 Y103.616 E.01467
G1 X107.718 Y104.258 E.02153
G1 X108.009 Y104.665 E.01569
G1 X108.23 Y104.903 E.01018
G1 X108.638 Y105.213 E.01607
G1 X108.894 Y105.351 E.00912
G1 X109.385 Y105.525 E.01633
G1 X109.767 Y105.577 E.01209
G1 X110.478 Y105.518 E.02237
G1 X111.024 Y105.3 E.01843
G1 X111.339 Y105.116 E.01144
G1 X111.766 Y104.741 E.01782
G1 X111.974 Y104.437 E.01155
G1 X112.22 Y103.993 E.01592
G1 X112.345 Y103.413 E.0186
G1 X112.361 Y102.955 E.01437
G1 X112.277 Y102.454 E.01593
G1 X112.024 Y101.86 E.02024
G1 X111.739 Y101.456 E.0155
G1 X111.489 Y101.223 E.01072
G1 X111.844 Y101.289 E.01132
G1 X112.817 Y101.552 E.0316
G1 X113.374 Y101.759 E.01863
G1 X113.86 Y101.979 E.01673
G1 X114.603 Y102.381 E.02649
G1 X115.218 Y102.779 E.02297
G1 X115.682 Y103.139 E.01841
G1 X116.35 Y103.757 E.02853
G1 X116.954 Y104.438 E.02854
G1 X117.308 Y104.911 E.01852
G1 X117.636 Y105.418 E.01893
G1 X117.927 Y105.943 E.01882
G1 X118.185 Y106.492 E.01902
G1 X118.397 Y107.036 E.01831
G1 X118.715 Y108.185 E.03738
G1 X118.319 Y107.845 E.01636
G1 X118.067 Y107.689 E.00929
G1 X117.64 Y107.511 E.0145
G1 X117.109 Y107.404 E.01698
G1 X116.706 Y107.424 E.01265
G1 X116.154 Y107.537 E.01767
G1 X115.697 Y107.753 E.01585
G1 X115.229 Y108.101 E.01829
G1 X115.004 Y108.339 E.01027
G1 X114.684 Y108.824 E.01822
G1 X114.485 Y109.321 E.01679
G1 X114.41 Y109.882 E.01775
G1 X114.484 Y110.449 E.01793
G1 X114.589 Y110.798 E.01143
G1 X114.912 Y111.392 E.0212
G1 X115.27 Y111.755 E.01599
G1 X115.581 Y112.003 E.01247
G1 X116.169 Y112.269 E.02024
G1 X116.695 Y112.373 E.01681
G1 X117.312 Y112.333 E.01939
G1 X117.926 Y112.132 E.02026
G1 X118.277 Y111.942 E.01251
G1 X118.717 Y111.535 E.01879
G1 X119.199 Y111.236 F9000
G1 F1200
G1 X118.943 Y112.485 E.03998
G1 X118.759 Y113.073 E.01932
G1 X118.533 Y113.653 E.01952
G1 X118.081 Y114.565 E.03191
G1 X117.602 Y115.318 E.02798
G1 X117.044 Y116.05 E.02886
G1 X116.464 Y116.661 E.02641
G1 X115.938 Y117.132 E.02214
G1 X115.431 Y117.531 E.02023
G1 X114.97 Y117.838 E.01737
G1 X114.517 Y118.106 E.0165
G1 X113.737 Y118.496 E.02734
G1 X113.18 Y118.719 E.01881
G1 X112.702 Y118.879 E.0158
G1 X111.794 Y119.105 E.02934
G1 X110.736 Y119.259 E.03352
;WIDTH:0.385158
G1 X110.147 Y119.304 E.01681
;WIDTH:0.39726
G1 X109.545 Y119.28 E.01775
;WIDTH:0.419999
G1 X108.939 Y119.22 E.01909
G1 X107.534 Y118.945 E.04489
G1 X106.423 Y118.565 E.03682
G1 X105.57 Y118.153 E.0297
G1 X104.867 Y117.727 E.02577
G1 X104.318 Y117.335 E.02115
G1 X103.932 Y117.013 E.01576
G1 X103.436 Y116.552 E.02123
G1 X102.781 Y115.818 E.03085
G1 X102.291 Y115.152 E.02592
G1 X101.971 Y114.649 E.01869
G1 X101.577 Y113.883 E.02701
G1 X101.332 Y113.308 E.0196
G1 X101.163 Y112.806 E.01661
G1 X100.938 Y111.988 E.0266
G1 X100.807 Y111.261 E.02316
G1 X100.726 Y110.675 E.01855
;WIDTH:0.386543
G1 X100.696 Y109.984 E.01976
;WIDTH:0.406002
G1 X100.745 Y109.358 E.01896
;WIDTH:0.419999
G1 X100.824 Y108.604 E.02377
G1 X101.013 Y107.679 E.0296
G1 X101.165 Y107.164 E.01684
G1 X101.358 Y106.619 E.01813
G1 X101.853 Y105.554 E.03682
G1 X102.32 Y104.788 E.02813
G1 X102.769 Y104.183 E.02362
G1 X103.495 Y103.388 E.03376
G1 X104.176 Y102.781 E.0286
G1 X104.882 Y102.261 E.02749
G1 X105.482 Y101.896 E.02202
G1 X106.207 Y101.542 E.0253
G1 X106.881 Y101.259 E.02292
G1 X107.491 Y101.072 E.02
G1 X108.307 Y100.87 E.02636
G1 X109.526 Y100.703 E.03858
;WIDTH:0.373892
G1 X110.072 Y100.7 E.01503
;WIDTH:0.391605
G1 X110.36 Y100.722 E.00837
;WIDTH:0.41804
G1 X110.648 Y100.744 E.00901
;WIDTH:0.419999
G1 X111.272 Y100.809 E.01967
G1 X111.928 Y100.922 E.02087
G1 X112.932 Y101.193 E.03261
G1 X113.518 Y101.41 E.01959
G1 X114.028 Y101.641 E.01755
G1 X114.796 Y102.057 E.02739
G1 X115.436 Y102.472 E.02392
G1 X115.926 Y102.851 E.01942
G1 X116.619 Y103.493 E.02962
G1 X117.247 Y104.2 E.02965
G1 X117.617 Y104.696 E.0194
G1 X117.96 Y105.223 E.01972
G1 X118.263 Y105.771 E.01963
G1 X118.531 Y106.343 E.01981
G1 X118.755 Y106.917 E.01932
G1 X119.093 Y108.139 E.03975
G1 X119.266 Y109.319 E.03739
;WIDTH:0.37881
G1 X119.308 Y109.957 E.01786
;WIDTH:0.369784
G1 X119.297 Y110.198 E.00656
;WIDTH:0.394892
G1 X119.276 Y110.449 E.00737
;WIDTH:0.419999
G1 X119.206 Y111.176 E.0229
G1 X119.573 Y111.293 F9000
;TYPE:External perimeter
G1 F1200
G1 X119.308 Y112.579 E.04117
G1 X119.115 Y113.198 E.02033
G1 X118.878 Y113.805 E.02043
G1 X118.41 Y114.75 E.03306
G1 X117.912 Y115.534 E.02912
G1 X117.332 Y116.294 E.02998
G1 X116.727 Y116.932 E.02757
G1 X116.18 Y117.421 E.023
G1 X115.653 Y117.837 E.02105
G1 X115.171 Y118.158 E.01816
G1 X114.698 Y118.438 E.01723
G1 X113.891 Y118.84 E.02827
G1 X113.286 Y119.082 E.02043
G1 X112.807 Y119.241 E.01582
G1 X111.854 Y119.478 E.03079
G1 X111.105 Y119.595 E.02377
G1 X110.162 Y119.657 E.02963
G1 X109.532 Y119.646 E.01976
G1 X108.89 Y119.594 E.0202
G1 X107.889 Y119.411 E.03191
G1 X107.287 Y119.268 E.0194
G1 X106.34 Y118.943 E.03139
G1 X105.453 Y118.522 E.03078
G1 X104.829 Y118.158 E.02265
G1 X104.29 Y117.79 E.02046
G1 X103.89 Y117.48 E.01587
G1 X103.293 Y116.95 E.02503
G1 X102.686 Y116.305 E.02777
G1 X102.16 Y115.642 E.02654
G1 X101.69 Y114.92 E.02701
G1 X101.401 Y114.4 E.01865
G1 X101.103 Y113.757 E.02222
G1 X100.887 Y113.202 E.01867
G1 X100.61 Y112.263 E.0307
G1 X100.418 Y111.219 E.03328
G1 X100.366 Y110.704 E.01623
G1 X100.346 Y110.013 E.02167
G1 X100.388 Y109.056 E.03003
G1 X100.451 Y108.543 E.01621
G1 X100.646 Y107.588 E.03056
G1 X100.807 Y107.048 E.01767
G1 X101.008 Y106.476 E.01901
G1 X101.52 Y105.375 E.03807
G1 X102.007 Y104.577 E.02931
G1 X102.476 Y103.945 E.02468
G1 X103.112 Y103.227 E.03007
G1 X103.833 Y102.566 E.03067
G1 X104.603 Y101.991 E.03013
G1 X105.167 Y101.636 E.0209
G1 X105.742 Y101.33 E.02042
G1 X106.716 Y100.917 E.03317
G1 X107.193 Y100.758 E.01576
G1 X108.218 Y100.502 E.03313
G1 X108.787 Y100.417 E.01804
G1 X109.509 Y100.349 E.02274
G1 X110.396 Y100.351 E.02781
G1 X110.966 Y100.388 E.01791
G1 X111.518 Y100.461 E.01746
G1 X112.012 Y100.554 E.01576
G1 X113.047 Y100.833 E.03361
G1 X113.661 Y101.061 E.02054
G1 X114.196 Y101.303 E.01841
G1 X114.989 Y101.732 E.02827
G1 X115.655 Y102.164 E.02489
G1 X116.17 Y102.564 E.02045
G1 X116.889 Y103.229 E.03071
G1 X117.539 Y103.961 E.03069
G1 X117.927 Y104.48 E.02032
G1 X118.283 Y105.029 E.02052
G1 X118.599 Y105.6 E.02046
G1 X118.878 Y106.195 E.0206
G1 X119.113 Y106.798 E.02029
G1 X119.462 Y108.059 E.04102
G1 X119.558 Y108.674 E.01952
G1 X119.621 Y109.299 E.0197
G1 X119.657 Y109.969 E.02104
G1 X119.631 Y110.725 E.02372
G1 X119.579 Y111.234 E.01604
G1 X119.199 Y111.437 F9000
;WIPE_START
G1 F7200
G1 X119.308 Y112.579 E-.32586
G1 X119.115 Y113.198 E-.15399
G1 X118.878 Y113.805 E-.15476
G1 X118.569 Y114.429 E-.16539
;WIPE_END
G1 X118.959 Y110.141 F9000
G1 E.8 F1800
;TYPE:Perimeter
;WIDTH:0.392151
G1 F1200
G1 X118.944 Y110.243 E.00299
;WIDTH:0.419357
G1 X118.903 Y110.538 E.00932
;WIDTH:0.419999
G1 X118.645 Y111.044 E.01781
G1 X118.203 Y111.525 E.02048
G1 X117.795 Y111.778 E.01505
G1 X117.262 Y111.96 E.01766
G1 X116.728 Y111.997 E.01678
G1 X116.122 Y111.859 E.01949
G1 X115.661 Y111.607 E.01647
G1 X115.264 Y111.222 E.01734
G1 X114.893 Y110.552 E.02401
G1 X114.794 Y110.056 E.01586
G1 X114.822 Y109.526 E.01664
G1 X114.999 Y109.032 E.01645
G1 X115.319 Y108.546 E.01824
G1 X115.454 Y108.404 E.00614
G1 X115.922 Y108.056 E.01829
G1 X116.381 Y107.86 E.01565
G1 X116.879 Y107.778 E.01582
G1 X117.37 Y107.824 E.01546
G1 X117.922 Y108.038 E.01856
G1 X118.49 Y108.489 E.02274
G1 X118.769 Y108.888 E.01527
G1 X118.933 Y109.358 E.01561
;WIDTH:0.37881
G1 X118.986 Y109.947 E.01652
;WIDTH:0.392151
G1 X118.967 Y110.082 E.00396
G1 X118.628 Y110.094 F9000
;TYPE:External perimeter
;WIDTH:0.419999
G1 F1200
G1 X118.52 Y110.488 E.01281
G1 X118.284 Y110.903 E.01497
G1 X117.934 Y111.261 E.0157
G1 X117.665 Y111.424 E.00986
G1 X117.203 Y111.587 E.01536
G1 X116.739 Y111.619 E.01458
G1 X116.273 Y111.513 E.01498
G1 X115.86 Y111.278 E.0149
G1 X115.494 Y110.908 E.01632
G1 X115.249 Y110.428 E.0169
G1 X115.163 Y109.935 E.01569
G1 X115.201 Y109.559 E.01185
G1 X115.314 Y109.239 E.01064
G1 X115.634 Y108.754 E.01822
G1 X116.19 Y108.335 E.02183
G1 X116.473 Y108.226 E.00951
G1 X116.977 Y108.148 E.01599
G1 X117.35 Y108.208 E.01185
G1 X117.827 Y108.417 E.01633
